/* XPM */
static char * veyon_configurator[] = {
"32 32 522 2",
"   c None",
".  c #c3a056",
"+  c #c7a255",
"@  c #7f5c0b",
"#  c #b49552",
"$  c #a78544",
"%  c #efb945",
"&  c #b4995d",
"*  c #5a6982",
"=  c #5c697f",
"-  c #a68f61",
";  c #d4aa54",
">  c #ffca3d",
",  c #9a741f",
"'  c #ac8b48",
")  c #c3ab78",
"!  c #f6ebd2",
"~  c #e1d2b0",
"{  c #af8f4d",
"]  c #d8ac4f",
"^  c #978867",
"/  c #34538b",
"(  c #043592",
"_  c #083892",
":  c #234a91",
"<  c #5b6a82",
"[  c #7f7b6e",
"}  c #948464",
"|  c #a08c60",
"1  c #bca26e",
"2  c #c3ac7c",
"3  c #d2bf99",
"4  c #f9eed5",
"5  c #fffffe",
"6  c #ffffff",
"7  c #f7edd6",
"8  c #bfa56c",
"9  c #8d671b",
"0  c #b99a58",
"a  c #797a76",
"b  c #133f8f",
"c  c #07378e",
"d  c #0c3888",
"e  c #033184",
"f  c #002b85",
"g  c #002888",
"h  c #002d8b",
"i  c #0f3b8d",
"j  c #3c5c97",
"k  c #fefcf6",
"l  c #bdcce8",
"m  c #a5b5d4",
"n  c #fdfcfc",
"o  c #fffdf3",
"p  c #d2bc8f",
"q  c #aa8c48",
"r  c #c19e55",
"s  c #4c6184",
"t  c #013490",
"u  c #18418d",
"v  c #34599e",
"w  c #7f96c2",
"x  c #9aadce",
"y  c #b1bed8",
"z  c #8298c1",
"A  c #153f90",
"B  c #264d95",
"C  c #f9fafb",
"D  c #fdffff",
"E  c #9aaccd",
"F  c #627eb3",
"G  c #f7f8fb",
"H  c #fefefe",
"I  c #fcfbfa",
"J  c #dfcfae",
"K  c #9f7b35",
"L  c #978764",
"M  c #103d8e",
"N  c #194491",
"O  c #dee3ef",
"P  c #d4daea",
"Q  c #d8deec",
"R  c #d0d7e8",
"S  c #fffeff",
"T  c #6480b5",
"U  c #1c448e",
"V  c #fbfaf9",
"W  c #fcfcfd",
"X  c #9eafd0",
"Y  c #5775ae",
"Z  c #eceff6",
" . c #fefbf3",
".. c #b4995e",
"+. c #b99959",
"@. c #3c5788",
"#. c #0f3d94",
"$. c #e4e8f0",
"%. c #c8d1e4",
"&. c #c0cae0",
"*. c #bfcae0",
"=. c #e2e6f1",
"-. c #6581b6",
";. c #1a438e",
">. c #fcfbfb",
",. c #e8edf4",
"'. c #ced7e8",
"). c #748dbc",
"!. c #eff1f5",
"~. c #f8fbff",
"{. c #eee1c4",
"]. c #a27e36",
"^. c #d0a752",
"/. c #626c7c",
"(. c #0d3d96",
"_. c #b3bfd8",
":. c #bac5dd",
"<. c #bdc8df",
"[. c #bec8df",
"}. c #5675ae",
"|. c #1d4590",
"1. c #fafafb",
"2. c #758ebd",
"3. c #4869a7",
"4. c #7991be",
"5. c #5976af",
"6. c #6a85b7",
"7. c #385b9e",
"8. c #dee5f4",
"9. c #d5c298",
"0. c #774c08",
"a. c #ddb04e",
"b. c #777772",
"c. c #0b3b94",
"d. c #dde2ed",
"e. c #cad3e5",
"f. c #dfe4ef",
"g. c #e6eaf3",
"h. c #5473ad",
"i. c #1d4691",
"j. c #fbfbfc",
"k. c #b7c4dd",
"l. c #c8d2e4",
"m. c #c0cbe1",
"n. c #8ca0c7",
"o. c #d4dcea",
"p. c #a1b2d2",
"q. c #ebeff7",
"r. c #c9b383",
"s. c #ebb44b",
"t. c #7e796c",
"u. c #0e3d93",
"v. c #fefdfd",
"w. c #dbe0ed",
"x. c #c2cce1",
"y. c #6985b7",
"z. c #19438f",
"A. c #fbfbfb",
"B. c #d0d8e8",
"C. c #6d88b9",
"D. c #c0a877",
"E. c #eab247",
"F. c #7e7a6e",
"G. c #0f3e94",
"H. c #899ec5",
"I. c #5171ab",
"J. c #5f7cb2",
"K. c #4f6faa",
"L. c #5c7ab1",
"M. c #3c60a2",
"N. c #254d95",
"O. c #f5f7f9",
"P. c #f9fafc",
"Q. c #f8f9fc",
"R. c #92a6cb",
"S. c #2d539a",
"T. c #e9edf4",
"U. c #f9fafd",
"V. c #fbfcfd",
"W. c #bfa878",
"X. c #e6b04a",
"Y. c #656a6f",
"Z. c #002789",
" + c #00247d",
".+ c #00267f",
"++ c #00257f",
"@+ c #002680",
"#+ c #00247e",
"$+ c #1e4792",
"%+ c #f1f4f8",
"&+ c #e3e8f1",
"*+ c #ceb889",
"=+ c #633800",
"-+ c #b79244",
";+ c #b8b6b0",
">+ c #9bafd5",
",+ c #a0b0cf",
"'+ c #9dafd0",
")+ c #9caecf",
"!+ c #9aacce",
"~+ c #96a8cb",
"{+ c #768ebc",
"]+ c #738cbc",
"^+ c #748ebc",
"/+ c #7891be",
"(+ c #7891bf",
"_+ c #738dbc",
":+ c #7189b8",
"<+ c #6684bb",
"[+ c #918e83",
"}+ c #ca9939",
"|+ c #ae9456",
"1+ c #ffffee",
"2+ c #f2f4f9",
"3+ c #093689",
"4+ c #002e84",
"5+ c #002f86",
"6+ c #002e85",
"7+ c #043183",
"8+ c #002e86",
"9+ c #013085",
"0+ c #4f617f",
"a+ c #cea452",
"b+ c #bda674",
"c+ c #fdfefc",
"d+ c #e5ebf5",
"e+ c #b0bfdb",
"f+ c #b0c1df",
"g+ c #bbc6db",
"h+ c #bdc6d7",
"i+ c #c9d3e6",
"j+ c #e1e6f0",
"k+ c #1d4692",
"l+ c #0e3c8f",
"m+ c #2d4d88",
"n+ c #7a786f",
"o+ c #6a6e75",
"p+ c #797770",
"q+ c #23488a",
"r+ c #093992",
"s+ c #3a578b",
"t+ c #b39558",
"u+ c #c7b48c",
"v+ c #9facc6",
"w+ c #435166",
"x+ c #4d5b75",
"y+ c #445676",
"z+ c #42516c",
"A+ c #395da0",
"B+ c #e4e9f1",
"C+ c #1b4490",
"D+ c #023490",
"E+ c #41577f",
"F+ c #566378",
"G+ c #002f95",
"H+ c #536179",
"I+ c #294a86",
"J+ c #053690",
"K+ c #20488f",
"L+ c #9d8a61",
"M+ c #cdbc99",
"N+ c #9aaac8",
"O+ c #3c5174",
"P+ c #58657c",
"Q+ c #676d76",
"R+ c #475976",
"S+ c #657799",
"T+ c #e7eaf0",
"U+ c #113f92",
"V+ c #334f81",
"W+ c #8a8068",
"X+ c #887e68",
"Y+ c #636a73",
"Z+ c #74736f",
" @ c #2e4c84",
".@ c #0f3d92",
"+@ c #938463",
"@@ c #c9b893",
"#@ c #91a5cc",
"$@ c #585f6b",
"%@ c #5c677a",
"&@ c #435981",
"*@ c #63676d",
"=@ c #57709d",
"-@ c #e7ebf0",
";@ c #475a7b",
">@ c #696e72",
",@ c #6f7070",
"'@ c #707170",
")@ c #5c6676",
"!@ c #485b7c",
"~@ c #314e83",
"{@ c #9a8762",
"]@ c #cbab64",
"^@ c #b69150",
"/@ c #bca678",
"(@ c #98aac9",
"_@ c #4d5869",
":@ c #526079",
"<@ c #344f81",
"[@ c #5d6369",
"}@ c #3f619f",
"|@ c #e6eaf1",
"1@ c #0f3d93",
"2@ c #44597b",
"3@ c #51607a",
"4@ c #646974",
"5@ c #827b6a",
"6@ c #897f68",
"7@ c #103c8d",
"8@ c #32528c",
"9@ c #af935b",
"0@ c #bc9b58",
"a@ c #a9966d",
"b@ c #a58960",
"c@ c #a68e5e",
"d@ c #6e7684",
"e@ c #877e69",
"f@ c #ae8c46",
"g@ c #f9f0db",
"h@ c #b2c0db",
"i@ c #2c4b85",
"j@ c #657085",
"k@ c #546789",
"l@ c #5e697c",
"m@ c #637caa",
"n@ c #e6eaf0",
"o@ c #0c3d94",
"p@ c #516078",
"q@ c #4e5e7b",
"r@ c #375182",
"s@ c #7e786c",
"t@ c #3f567e",
"u@ c #4a5c7c",
"v@ c #234787",
"w@ c #d4a84e",
"x@ c #7d786a",
"y@ c #51688f",
"z@ c #988762",
"A@ c #958563",
"B@ c #948668",
"C@ c #737577",
"D@ c #907c4f",
"E@ c #c2a873",
"F@ c #fffffb",
"G@ c #f0f6ff",
"H@ c #e9eef7",
"I@ c #eef2f8",
"J@ c #edf1f9",
"K@ c #f8f9fb",
"L@ c #134092",
"M@ c #2b4b83",
"N@ c #727270",
"O@ c #6a6e71",
"P@ c #465a7d",
"Q@ c #6f706f",
"R@ c #606873",
"S@ c #516485",
"T@ c #a8905b",
"U@ c #ac915c",
"V@ c #827e72",
"W@ c #978866",
"X@ c #9e8a60",
"Y@ c #686c71",
"Z@ c #3a5585",
" # c #8a826f",
".# c #c5a45a",
"+# c #c7b07e",
"@# c #fffff0",
"## c #fffdfc",
"$# c #e5e9f2",
"%# c #1a4490",
"&# c #0d3a8d",
"*# c #0a3a8f",
"=# c #043590",
"-# c #003292",
";# c #003194",
"># c #3e5a8c",
",# c #a99262",
"'# c #ffbf3f",
")# c #ae9259",
"!# c #50607d",
"~# c #71716f",
"{# c #6a6e70",
"]# c #26498b",
"^# c #465a7e",
"/# c #817c6c",
"(# c #e3b451",
"_# c #b89d67",
":# c #daccae",
"<# c #fdf5e4",
"[# c #05358e",
"}# c #0c3b91",
"|# c #244b90",
"1# c #475f89",
"2# c #777670",
"3# c #bd9d5a",
"4# c #ffdf0f",
"5# c #dbae50",
"6# c #948667",
"7# c #4d5e7d",
"8# c #485b80",
"9# c #7c776c",
"0# c #887d66",
"a# c #5d6c84",
"b# c #2b4a84",
"c# c #626a78",
"d# c #5a687e",
"e# c #92856b",
"f# c #c49c4c",
"g# c #d5960f",
"h# c #c29d50",
"i# c #c8b182",
"j# c #dacbac",
"k# c #f9f2e3",
"l# c #e9effb",
"m# c #174393",
"n# c #405984",
"o# c #737470",
"p# c #9c8b63",
"q# c #d2a854",
"r# c #ffca3e",
"s# c #ddae4c",
"t# c #968766",
"u# c #6a6f76",
"v# c #51627f",
"w# c #596376",
"x# c #425c8c",
"y# c #8f8266",
"z# c #f6b846",
"A# c #928467",
"B# c #5e6b81",
"C# c #405780",
"D# c #4e6182",
"E# c #626c7e",
"F# c #717373",
"G# c #928567",
"H# c #ab8d4b",
"I# c #a38442",
"J# c #b79857",
"K# c #bdb093",
"L# c #8d8471",
"M# c #be9c55",
"N# c #cda757",
"O# c #ba9b56",
"P# c #948564",
"Q# c #7d786c",
"R# c #616b7c",
"S# c #3e5988",
"T# c #3e557d",
"U# c #3a5380",
"V# c #5c6a81",
"W# c #8e836a",
"X# c #d6a84b",
"Y# c #be9d58",
"Z# c #6c7174",
" $ c #666f7d",
".$ c #3e5782",
"+$ c #345082",
"@$ c #3d5582",
"#$ c #5a6981",
"$$ c #556785",
"%$ c #c7a55e",
"&$ c #be9d55",
"*$ c #bf7200",
"=$ c #ffe428",
"-$ c #caa351",
";$ c #c5a25b",
">$ c #69717e",
",$ c #4e6185",
"'$ c #58657b",
")$ c #485a7b",
"!$ c #5b6981",
"~$ c #757572",
"{$ c #ae955e",
"]$ c #ffe624",
"^$ c #ac935e",
"/$ c #817b6c",
"($ c #666f7c",
"_$ c #435982",
":$ c #576377",
"<$ c #8a8067",
"[$ c #8b8067",
"}$ c #9a8a64",
"|$ c #9c8a61",
"1$ c #8f8366",
"2$ c #837b69",
"3$ c #6c6f71",
"4$ c #415882",
"5$ c #576680",
"6$ c #6f7479",
"7$ c #827d6c",
"8$ c #ad9560",
"9$ c #ffc33c",
"0$ c #d2a852",
"a$ c #a18d63",
"b$ c #89806a",
"c$ c #3c557f",
"d$ c #506282",
"e$ c #4b6083",
"f$ c #4d5f7f",
"g$ c #5b6576",
"h$ c #7e796b",
"i$ c #8d8267",
"j$ c #9e8b63",
"k$ c #c3a058",
"l$ c #ffd22d",
"m$ c #918465",
"n$ c #586a87",
"o$ c #4f6182",
"p$ c #5a677d",
"q$ c #4a5e82",
"r$ c #475d84",
"s$ c #767a7f",
"t$ c #968663",
"u$ c #c79e52",
"v$ c #bc9c5c",
"w$ c #a08d62",
"x$ c #8e8265",
"y$ c #918365",
"z$ c #998965",
"A$ c #ab945f",
"B$ c #ca9e4f",
"                                                                ",
"                  . +                   @ # $                   ",
"              % & * = - ; >         , ' ) ! ~ {                 ",
"            ] ^ / ( _ : < [ } | 1 2 3 4 5 6 6 7 8 9             ",
"          0 a b c d e f g h i j k 6 6 l m 5 n 6 o p q           ",
"          r s t u v w x y z A B C D n E F G H I 6 J K           ",
"            L M N O P Q R S T U V 6 W X Y Z 6 6  ...            ",
"            +.@.#.$.%.&.*.=.-.;.>.,.6 '.).6 !.~.{.].            ",
"            ^./.(._.:.%.<.[.}.|.1.2.3.4.5.6.7.8.9.0.            ",
"            a.b.c.d.Q e.f.g.h.i.j.k.l.m.n.o.p.q.r.              ",
"            s.t.u.v.w.x.P 6 y.z.A.6 6 B.C.6 6 6 D.              ",
"            E.F.G.H.I.J.K.L.M.N.O.P.Q.R.S.T.U.V.W.              ",
"            X.Y.Z. +.+++@+@+#+$+6 6 6 %+&+6 6 6 *+=+            ",
"            -+;+>+,+X '+)+)+!+~+{+]+^+/+(+_+:+<+[+}+            ",
"            |+1+6 6 6 6 6 6 6 2+3+4+5+6+7+8+9+Z.0+a+            ",
"            b+c+d+e+f+g+h+i+V.j+k+l+m+n+o+p+q+r+s+t+            ",
"            u+6 v+w+x+y+z+A+6 B+C+D+E+F+G+H+I+J+K+L+            ",
"            M+6 N+O+P+Q+R+S+6 T+U+V+W+X+F+Y+Z+ @.@+@            ",
"            @@H #@$@%@&@*@=@6 -@u.;@>@,@'@)@!@~@U+{@            ",
"        ]@^@/@6 (@_@:@<@[@}@6 |@1@2@3@4@5@6@7@D+8@9@0@a@b@      ",
"      c@d@e@f@g@h@i@j@k@l@m@6 n@o@p@q@r@s@t@u@v@/.w@x@y@z@      ",
"      A@B@C@D@E@F@G@H@I@J@K@6 |@L@M@N@O@P@Q@R@S@T@U@V@W@X@      ",
"      Y@Z@ #.#  +#@#6 6 6 ##H $#%#&#*#=#-#;#>#,#'#)# #!#~#      ",
"      {#]#^#/#(#  _#:#<#6 6 6 $.z.[#}#|#1#2#3#4#5#6#7#8#9#      ",
"      0#a#b#c#d#e#f#g#h#i#j#k#l#m#n#o#p#q#r#s#t#u#v#w#x#y#      ",
"      z#A#B#C#t@D#E#F#G#H#I#J#K#L#M#N#O#P#Q#R#S#T#U#V#W#X#      ",
"          Y#Z# $.$+$@$#$$$%$&$*$=$-$;$>$,$'$)$C#!$~${$          ",
"            ]$^$/$l@($_$:$<$[$}$|$1$2$3$4$5$6$7$8$9$            ",
"                  0$a$b$t.c$_$d$e$f$g$h$i$j$k$l$                ",
"                        m$n$o$p$q$r$s$t$                        ",
"                        u$v$w$x$y$z$A$B$                        ",
"                                                                "
};
